icons/folder-graphql.svg

<svg xmlns="http://www.w3.org/2000/svg" viewBox="0 0 16 16">
<path id="folder" fill="#ec407a" d="m6.922 3.768-.644-.536A1 1 0 0 0 5.638 3H2a1 1 0 0 0-1 1v8a1 1 0 0 0 1 1h12a1 1 0 0 0 1-1V5a1 1 0 0 0-1-1H7.562a1 1 0 0 1-.64-.232" />
<path id="motive" fill="#f8bbd0" d="m 11.496955,5.0000032 a 0.9951892,0.99442427 0 0 0 -0.99769,0.9914258 1.0001901,0.99942137 0 0 0 0.018,0.1848929 L 8.6499103,7.2457026 A 1.0001901,0.99942137 0 0 0 8.4958813,7.1352667 h -0.0015 a 1.0051911,1.0044185 0 0 0 -1.360259,0.3802799 0.9741852,0.97343643 0 0 0 0.535102,1.4116836 v 2.1372628 a 0.98768775,0.98692863 0 0 0 -0.614117,1.25927 1.0036908,1.0029193 0 0 0 1.442274,0.531192 1.0001901,0.99942137 0 0 0 0.15153,-0.108936 l 1.8683547,1.066882 a 0.99918995,0.99842197 0 1 0 1.980376,0.187891 1.0001901,0.99942137 0 0 0 -0.02501,-0.215375 l 1.850352,-1.059387 a 1.0076915,1.006917 0 0 0 1.414269,-0.06396 1.0001901,0.99942137 0 0 0 0.125524,-0.169902 h 0.0015 v -10e-4 a 0.9851873,0.98443008 0 0 0 -0.365069,-1.351217 l -10e-4,-5e-4 a 1.0001901,0.99942137 0 0 0 -0.170535,-0.07496 V 8.9257282 A 0.98718765,0.98642893 0 0 0 15.94579,7.6684555 1.0031907,1.0024196 0 0 0 14.502516,7.1352647 h -0.0025 A 1.0001901,0.99942137 0 0 0 14.344987,7.2452006 L 12.478632,6.1798179 A 0.9926887,0.99192572 0 0 0 11.685481,5.0184902 1.0001901,0.99942137 0 0 0 11.497445,5.0005003 Z M 10.595784,6.8889097 8.3283523,10.77516 V 8.9197342 a 0.96718385,0.96644048 0 0 0 0.644123,-1.1033617 z m 1.808343,0.0025 1.617308,0.9264638 a 0.97018445,0.96943873 0 0 0 0.646122,1.1018617 v 1.8524278 z m -1.089207,0.06996 a 0.95018065,0.94945034 0 0 0 0.36707,0 l 2.560487,4.3909583 a 0.92517589,0.92446478 0 0 0 -0.187036,0.319315 H 8.9399693 a 1.0001901,0.99942137 0 0 0 -0.07652,-0.168403 l -10e-4,-0.0015 a 1.0001901,0.99942137 0 0 0 -0.10852,-0.147915 z M 9.2350253,12.325764 H 13.807894 L 12.161081,13.26672 A 0.98718765,0.98642893 0 0 0 10.851832,13.25173 L 9.2350253,12.327264 Z" />
</svg>

<svg xmlns="http://www.w3.org/2000/svg" viewBox="0 0 16 16"><path id="folder" fill="#ec407a" d="m6.922 3.768-.644-.536A1 1 0 0 0 5.638 3H2a1 1 0 0 0-1 1v8a1 1 0 0 0 1 1h12a1 1 0 0 0 1-1V5a1 1 0 0 0-1-1H7.562a1 1 0 0 1-.64-.232"/><path id="motive" fill="#f8bbd0" d="M11.497 5a.995.994 0 0 0-.998.991 1 1 0 0 0 .018.185L8.65 7.246a1 1 0 0 0-.154-.11h-.002a1.005 1.005 0 0 0-1.36.38.974.973 0 0 0 .535 1.411v2.137a.988.987 0 0 0-.614 1.26 1.004 1.003 0 0 0 1.442.531 1 1 0 0 0 .152-.109l1.868 1.067a1 .998 0 1 0 1.98.188 1 1 0 0 0-.024-.216l1.85-1.059a1.008 1.007 0 0 0 1.414-.064 1 1 0 0 0 .126-.17h.001a.985.984 0 0 0-.365-1.352 1 1 0 0 0-.171-.076V8.926a.987.986 0 0 0 .618-1.258 1.003 1.003 0 0 0-1.443-.533H14.5a1 1 0 0 0-.155.11L12.479 6.18a.993.992 0 0 0-.794-1.162 1 1 0 0 0-.188-.017Zm-.901 1.889-2.268 3.886V8.92a.967.966 0 0 0 .644-1.104zm1.808.002 1.617.927a.97.97 0 0 0 .647 1.102v1.852zm-1.09.07a1 1 0 0 0 .368 0l2.56 4.391a.925.924 0 0 0-.187.32H8.94a1 1 0 0 0-.077-.169v-.001a1 1 0 0 0-.11-.148zm-2.079 5.365h4.573l-1.647.94a.987.986 0 0 0-1.31-.014z"/></svg>
